X: 1
T:On the Danforth (\251 Keith Murphy)
R:Reel
M:C|
L:1/8
K:A
"A"c2cd c2 A2|"E"B2 c2 "D"F4|"F#m"A3 B c2 BA |"E"B2 "(A/E  E)"c2 c2 B2|
"A"c2cd c2 A2|"E"B2 c2 "D"F4|"F#m"A3 B c2 BA |"E"B2 G2 "A"A4 :|
|:"A"e3 f e2 d2|c2 A2 "Bm"B2 d2|"A/C#"c2 A2 "D"B2 d2|"A/E"cB A2 "E"B2 E2|
"F#m"e3 f "E/G#"e2 d2|"A"c2 A2 "D"B2 d2|"A"cB A2 "E"B2 G2| "A"A4 "D"A4:|

